X:2
T:Deck the Halls
H: 
C:Traditional
O:Kevin Fraser
Z:Kevin Fraser
Q:1/4=90
K:HP
M:4/4
L:1/8
R:March
V:gstem=up stem=down
%%MIDI gracedivider 4
%%MIDI gchord
%%MIDI beatstring
w:
T: Deck the Halls
e ||"A" {g}e3 d {gcd}c2 B2 | "A" {g}A2 B2 {gcd}c2 A2 | "E" {g}Bc {g}dB "A" {g}c3 B | "E" {g}A2 G2 "A" {g}A4 |
w: e |he a hodo o | hen o hodo en | ho o ha o ho o hen em hen
  x |"A" {g}e3 d {gcd}c2 B2 | "A" {g}A2 B2 {gcd}c2 A2 | "E" {g}Bc {g}dB "A" {g}c3 B | "E" {g}A2 G2 "A" {g}A4 |
w:  |he a hodo o | hen o hodo en | ho o ha o ho o hen em hen
   x|"E" {g}B3 c {Gdc}d2 {e}B2 | "A" {g}c3 d  {g}e2 c2 | "A" {Gdc}de {g}f2 "F" {g}fg {ag}a2| "B" {f}g2 f2 "E" {gef}e4 |
w: ho o tra ho ho a he o tra e che che ve chili | vedi ve hete
   x|"A" {g}e3 d {gcd}c2 B2 | "A" {g}A2 B2 {gcd}c2 A2 | "D" {g}f{g}f {g}f{g}f "A" {g}e3 d | "E" {gcd}c2 B2 "A" {G}A4 ||
w: he a hodo o | hen o hodo en che che che che he a | hodo o emden
W:Deck the halls with boughs of holly, Fa la la la la, la la la la,
W:'Tis the season to be jolly, Fa la la la la, la la la la,
W:Don we now our gay apparel, Fa la la la la, la la la la,
W:Troll the ancient Yule-tide carol, Fa la la la la, la la la la,


